icons/fill-new-people-alert.svg

<svg xmlns="http://www.w3.org/2000/svg" width="32px" height="32px" viewBox="0 0 32 32" version="1.1">
    <title>fill-new-people-alert</title>
    <g id="fill-new-people-alert" stroke-width="1" fill-rule="evenodd">
        <path d="M23,16 C26.8659932,16 30,19.1340068 30,23 C30,26.8659932 26.8659932,30 23,30 C19.1340068,30 16,26.8659932 16,23 C16,19.1340068 19.1340068,16 23,16 Z M15.5162589,17.9989396 C14.5585477,19.4292479 14,21.1493961 14,23 C14,25.3053753 14.8667953,27.4082996 16.2922591,29.0006464 L5,29 C4.44771525,29 4,28.5522847 4,28 L4,23 C4,20.2385763 6.23857625,18 9,18 L15.5162589,17.9989396 Z M23,25 C22.4477153,25 22,25.4477153 22,26 C22,26.5522847 22.4477153,27 23,27 C23.5522847,27 24,26.5522847 24,26 C24,25.4477153 23.5522847,25 23,25 Z M23,19 C22.4477153,19 22,19.4477153 22,20 L22,23 C22,23.5522847 22.4477153,24 23,24 C23.5522847,24 24,23.5522847 24,23 L24,20 C24,19.4477153 23.5522847,19 23,19 Z M16,2 C19.8659932,2 23,5.13400675 23,9 C23,12.8659932 19.8659932,16 16,16 C12.1340068,16 9,12.8659932 9,9 C9,5.13400675 12.1340068,2 16,2 Z" id="&#24418;&#29366;" />
    </g>
</svg>

<svg xmlns="http://www.w3.org/2000/svg" viewBox="0 0 32 32"><path fill="currentColor" d="M23 16a7 7 0 1 1 0 14 7 7 0 0 1 0-14m-7.484 1.999A8.958 8.958 0 0 0 14 23c0 2.305.867 4.408 2.292 6H5a1 1 0 0 1-1-1v-5a5 5 0 0 1 5-5zM23 25a1 1 0 1 0 0 2 1 1 0 0 0 0-2m0-6a1 1 0 0 0-1 1v3a1 1 0 0 0 2 0v-3a1 1 0 0 0-1-1M16 2a7 7 0 1 1 0 14 7 7 0 0 1 0-14"/></svg>
